X:1
T:Title
%%score { 1 | 2 }
L:1/8
Q:1/4=100
M:6/8
K:Ab
V:1 treble nm="Grand Piano"
V:2 bass 
V:1
 [Ec]2 [DB] [CA]2 [CE] | [EG]2 [DF] [CE]3 | G2 A B2 [EG] | [EA]2 [Ec] [EB]3 | %4
w: Robert~Lowry * * *||||
 [Ec]2 [DB] [CA]2 [DG] | [EA]2 [DF] [CE]3 | [DF]2 [DG] [CA]2 [Ec] | [Ec]2 [DB] [CA]3 | B2 B c2 c | %9
w: |||||
 d2 c B3 | c2 c e2 c | B2 A B3 | [Ec]2 [=EB] [FA]2 [EG] | [FA]2 F E3 | F2 G [EA]2 [Ec] | %15
w: ||||||
 [Ec]2 [DB] [CA]3 |] %16
w: |
V:2
 [A,,A,]2 [A,,A,] [A,,A,]2 [A,,A,] | [D,A,]2 [D,A,] [A,,A,]3 | [E,B,E]2 [E,CE] [E,DE]2 [D,B,] | %3
 [C,A,]2 [A,,A,] [E,G,]3 | [A,,A,]2 [A,,E,] [A,,E,]2 [B,,E,] | [C,A,]2 [D,A,] [A,,A,]3 | %6
 [D,A,]2 [B,,E,] [A,,E,]2 [A,,A,] | [E,G,]2 [E,G,] [A,,A,]3 | [E,G,E]2 [E,G,E] [E,A,E]2 [E,A,E] | %9
 [E,B,E]2 [E,A,E] [E,G,E]3 | [A,E]2 [A,E] [A,CE]2 [A,E] | [G,B,E]2 [F,B,=D] [E,G,E]3 | %12
 [A,,A,]2 [C,G,] [D,F,]2 [D,B,] | [D,A,]2 [F,A,D] [A,C]3 | [D,A,D]2 [D,B,D] [C,A,]2 [A,,A,] | %15
 [E,G,]2 [E,G,] [A,,A,]3 |] %16

